X:1
T:Susannah Clargy
M:3/2
L:1/4
K:G
 G B d| G2 B2 A A| G3 G B c| d2 B2 B c| d3 d d f| g2 =f3/2 e/2| d f|\
 g3 e/2e/2 dB/2-A/2| G2 B2 A A| G3||

